X:344
T:Steam Packet
Z: id:dc-reel-320
M:C
L:1/8
K:G Major
AGG2 AGFD|AGG2 Addc|AGG2 AGFD|FEFG Addc:|!
dgg2 agg2|dgge fdcA|dgg2 agg2|d^cde fd=cA|!
dgg2 agg2|abag f3g|afge fde^c|d^cde fd=cA|]!